X: 3
T: The Home Ruler
R: hornpipe
M: 4/4
L: 1/8
K: Dmaj
|: D2 FA D2 FA | dfed BedB | ~A3 B AFDE | FdED BDAB |
D2 FA dAFA | dfed Be d2 | ~A3 B AFDE | Fd D2 D4 :|
|: Addc d2 df | afbf afed | efed BA B/c/d | ~f2 ed BdAB |
A2 dc ~d3 f | af b2 afed | e2 ed BedB | AF ~F2 D4 :|


Tune 310	Setting 23645

